src/components/Sprite/svg/flag.svg

<?xml version="1.0" encoding="UTF-8" standalone="no"?>
<svg
  xmlns="http://www.w3.org/2000/svg"
  viewBox="0 0 256 256"
  version="1.1"
  id="svg8"
>
  <g id="layer1">
    <path
      d="M 226,228 A 32,12 0 0 1 194,240 32,12 0 0 1 162,228 32,12 0 0 1 194,216 32,12 0 0 1 226,228"
      style="
        fill: #cfd8dc;
        stroke: none;
        stroke-width: 1.10653;
        stroke-linecap: round;
        stroke-linejoin: round;
      "
      id="path1062"
    />
    <path
      d="M 192.4,20 H 195.6 C 199.1456,20 202,23.568 202,28 V 220 C 202,224.432 199.1456,228 195.6,228 H 192.4 C 188.8544,228 186,224.432 186,220 V 28 C 186,23.568 188.8544,20 192.4,20 Z"
      style="
        fill: #b0bec5;
        stroke: none;
        stroke-width: 0.845128;
        stroke-linecap: round;
        stroke-linejoin: round;
      "
      id="rect1048"
    />
    <path
      d="M 210,32 A 16,16 0 0 1 194,48 16,16 0 0 1 178,32 16,16 0 0 1 194,16 16,16 0 0 1 210,32"
      style="
        fill: #cfd8dc;
        stroke: none;
        stroke-width: 0.839895;
        stroke-linecap: round;
        stroke-linejoin: round;
      "
      id="path1050"
    />
    <path
      id="rect1045"
      style="
        fill: #b71c1c;
        stroke: none;
        stroke-width: 1.12542;
        stroke-linecap: round;
        stroke-linejoin: round;
      "
      d="M 42,48.03424 C 42,48.03424 59.78923,59.843032 78,59.06819 96.21077,58.293347 133.53424,37.21696 150,37.00029 166.46576,36.783619 186,48.03424 186,48.03424 167.44746,77.931084 168.55963,113.56415 186,153.96016 186,153.96016 168.21077,142.15136 150,142.92621 131.78923,143.70106 94.46575,164.77744 78,164.99411 61.53425,165.21078 42,153.96016 42,153.96016 59.92553,118.73477 60.07435,83.426821 42,48.03424 Z"
    />
  </g>
</svg>

<svg xmlns="http://www.w3.org/2000/svg" viewBox="0 0 256 256">
  <path
    d="M226 228a32 12 0 01-32 12 32 12 0 01-32-12 32 12 0 0132-12 32 12 0 0132 12"
    fill="#cfd8dc"
  />
  <path
    d="M192.4 20h3.2c3.546 0 6.4 3.568 6.4 8v192c0 4.432-2.854 8-6.4 8h-3.2c-3.546 0-6.4-3.568-6.4-8V28c0-4.432 2.854-8 6.4-8z"
    fill="#b0bec5"
  />
  <path
    d="M210 32a16 16 0 01-16 16 16 16 0 01-16-16 16 16 0 0116-16 16 16 0 0116 16"
    fill="#cfd8dc"
  />
  <path
    d="M42 48.034s17.79 11.809 36 11.034c18.21-.775 55.534-21.851 72-22.068 16.466-.216 36 11.034 36 11.034-18.553 29.897-17.44 65.53 0 105.926 0 0-17.79-11.809-36-11.034-18.21.775-55.534 21.851-72 22.068-16.466.217-36-11.034-36-11.034 17.926-35.225 18.074-70.533 0-105.926z"
    fill="#b71c1c"
  />
</svg>
